assets/images/ic1.svg

<svg width="18" height="25" viewBox="0 0 18 25" fill="none" xmlns="http://www.w3.org/2000/svg">
<path d="M8.62 24C8.48003 23.9943 8.34322 23.9566 8.22 23.89C8.0829 23.818 7.96779 23.7103 7.88683 23.5783C7.80586 23.4463 7.76204 23.2948 7.76 23.14V13.74L1.42 18.74C1.24756 18.8867 1.0247 18.9605 0.798764 18.9455C0.572828 18.9306 0.361617 18.8282 0.209998 18.66C0.0607891 18.4887 -0.0145487 18.2652 0.000440756 18.0385C0.0154302 17.8118 0.119529 17.6002 0.289998 17.45L0.379998 17.38L7.24 12L0.379998 6.7C0.294431 6.62637 0.224387 6.53643 0.173955 6.43544C0.123523 6.33445 0.0937135 6.22442 0.0862662 6.11178C0.0788189 5.99914 0.0938831 5.88614 0.13058 5.77939C0.167276 5.67263 0.22487 5.57426 0.299998 5.49C0.435871 5.3321 0.624996 5.2296 0.831464 5.20194C1.03793 5.17429 1.24736 5.22342 1.42 5.34L7.76 10.34V0.870002C7.75984 0.714682 7.80274 0.562359 7.88395 0.429959C7.96516 0.297558 8.08148 0.190265 8.22 0.120002C8.34968 0.0414571 8.49839 -6.86646e-05 8.65 -6.86646e-05C8.80161 -6.86646e-05 8.95032 0.0414571 9.08 0.120002L16.8 5.26C16.9829 5.3924 17.1063 5.5914 17.1437 5.81404C17.1812 6.03667 17.1295 6.2651 17 6.45C16.9535 6.52768 16.8924 6.5956 16.82 6.65L10 12L16.86 17.33C17.0379 17.47 17.1535 17.6745 17.1815 17.8992C17.2096 18.1238 17.148 18.3505 17.01 18.53C16.9509 18.6009 16.8838 18.6646 16.81 18.72L9.08 23.85C8.94652 23.9535 8.78762 24.0191 8.62 24.04V24ZM9.48 13.74V21.54L14.88 17.94L9.48 13.74ZM9.48 2.47V10.31L14.88 6.1L9.48 2.47Z" fill="black"/>
</svg>

<svg width="18" height="25" fill="none" xmlns="http://www.w3.org/2000/svg"><path d="M8.62 24a.92.92 0 01-.4-.11.86.86 0 01-.46-.75v-9.4l-6.34 5a.87.87 0 01-1.21-.08.86.86 0 01.08-1.21l.09-.07L7.24 12 .38 6.7A.85.85 0 01.3 5.49a.85.85 0 011.12-.15l6.34 5V.87a.84.84 0 01.46-.75.83.83 0 01.86 0l7.72 5.14a.86.86 0 01.2 1.19.7.7 0 01-.18.2L10 12l6.86 5.33a.86.86 0 01-.05 1.39l-7.73 5.13a.94.94 0 01-.46.19V24zm.86-10.26v7.8l5.4-3.6-5.4-4.2zm0-11.27v7.84l5.4-4.21-5.4-3.63z" fill="#000"/></svg>
